lib/healthicons/icons/solid/symbols/health_data_security.svg

<svg fill="none" height="48" viewBox="0 0 48 48" width="48" xmlns="http://www.w3.org/2000/svg"><path clip-rule="evenodd" d="m17 7c0-1.65685 1.3431-3 3-3h8c1.6569 0 3 1.34315 3 3h3c1.6569 0 3 1.34315 3 3v15h-2v-15c0-.55228-.4477-1-1-1h-3c0 1.6569-1.3431 3-3 3h-8c-1.6569 0-3-1.3431-3-3h-3c-.5523 0-1 .44772-1 1v28c0 .5523.4477 1 1 1h12v2h-12c-1.6569 0-3-1.3431-3-3v-28c0-1.65685 1.3431-3 3-3zm3-1c-.5523 0-1 .44772-1 1v2c0 .55228.4477 1 1 1h8c.5523 0 1-.44772 1-1v-2c0-.55228-.4477-1-1-1zm3 10v3h-3v2h3v3h2v-3h3v-2h-3v-3zm5 11c-.5523 0-1 .4477-1 1v6.7889c0 2.3405 1.1697 4.5261 3.1171 5.8244l3.3282 2.2188c.3359.2239.7735.2239 1.1094 0l3.3282-2.2188c1.9474-1.2983 3.1171-3.4839 3.1171-5.8244v-6.7889c0-.5523-.4477-1-1-1zm9.7071 5.7072-4 4c-.3906.3905-1.0237.3905-1.4143 0l-2-2 1.4143-1.4142 1.2929 1.2929 3.2928-3.2929z" fill="#333" fill-rule="evenodd"/></svg>

<svg width="48" height="48" viewBox="0 0 48 48" fill="none" xmlns="http://www.w3.org/2000/svg">
<path fill-rule="evenodd" clip-rule="evenodd" d="M17 7C17 5.34315 18.3431 4 20 4H28C29.6569 4 31 5.34315 31 7H34C35.6569 7 37 8.34315 37 10V25H35V10C35 9.44772 34.5523 9 34 9H31C31 10.6569 29.6569 12 28 12H20C18.3431 12 17 10.6569 17 9H14C13.4477 9 13 9.44772 13 10V38C13 38.5523 13.4477 39 14 39H26V41H14C12.3431 41 11 39.6569 11 38V10C11 8.34315 12.3431 7 14 7H17ZM20 6C19.4477 6 19 6.44772 19 7V9C19 9.55228 19.4477 10 20 10H28C28.5523 10 29 9.55228 29 9V7C29 6.44772 28.5523 6 28 6H20ZM23 16V19H20V21H23V24H25V21H28V19H25V16H23ZM28 27C27.4477 27 27 27.4477 27 28V34.7889C27 37.1294 28.1697 39.315 30.1171 40.6133L33.4453 42.8321C33.7812 43.056 34.2188 43.056 34.5547 42.8321L37.8829 40.6133C39.8303 39.315 41 37.1294 41 34.7889V28C41 27.4477 40.5523 27 40 27H28ZM37.7071 32.7072L33.7071 36.7072C33.3165 37.0977 32.6834 37.0977 32.2928 36.7072L30.2928 34.7072L31.7071 33.293L33 34.5859L36.2928 31.293L37.7071 32.7072Z" fill="#333333"/>
</svg>
